src/assets/logic.svg

<?xml version="1.0" encoding="UTF-8" standalone="no"?><!DOCTYPE svg PUBLIC "-//W3C//DTD SVG 1.1//EN" "http://www.w3.org/Graphics/SVG/1.1/DTD/svg11.dtd"><svg width="100%" height="100%" viewBox="0 0 1024 1024" version="1.1" xmlns="http://www.w3.org/2000/svg" xmlns:xlink="http://www.w3.org/1999/xlink" xml:space="preserve" xmlns:serif="http://www.serif.com/" style="fill-rule:evenodd;clip-rule:evenodd;stroke-linejoin:round;stroke-miterlimit:2;"><g><path d="M305.801,232.847c0,31.674 -3.167,60.55 -9.502,86.629c-6.335,26.078 -15.942,48.461 -28.823,67.149c-12.881,18.688 -28.877,33.152 -47.987,43.394c-19.11,10.241 -41.545,15.361 -67.307,15.361c-22.172,0 -42.338,-4.17 -60.498,-12.511c-18.16,-8.341 -33.68,-21.169 -46.561,-38.484c-12.88,-17.315 -22.805,-39.381 -29.773,-66.199c-6.969,-26.817 -10.453,-58.597 -10.453,-95.339c0,-31.674 3.22,-60.603 9.661,-86.787c6.44,-26.184 16.048,-48.62 28.823,-67.308c12.776,-18.687 28.771,-33.152 47.987,-43.393c19.215,-10.241 41.598,-15.362 67.149,-15.362c22.172,-0 42.337,4.17 60.497,12.511c18.16,8.341 33.68,21.222 46.561,38.643c12.881,17.42 22.806,39.54 29.774,66.357c6.968,26.817 10.452,58.597 10.452,95.339Zm-55.746,1.901c-0,-7.18 -0.264,-14.307 -0.792,-21.381c-0.528,-7.073 -1.108,-13.989 -1.742,-20.746l-175.158,130.181c3.168,10.98 7.18,21.116 12.036,30.407c4.857,9.291 10.717,17.262 17.579,23.914c6.863,6.651 14.676,11.825 23.439,15.52c8.763,3.695 18.741,5.543 29.932,5.543c14.359,0 27.398,-3.484 39.118,-10.452c11.719,-6.969 21.697,-17.316 29.932,-31.041c8.235,-13.726 14.57,-30.777 19.004,-51.154c4.435,-20.377 6.652,-43.974 6.652,-70.791Zm-189.411,-3.801c-0,6.546 0.052,13.092 0.158,19.638c0.106,6.546 0.475,12.88 1.109,19.004l175.158,-129.547c-3.168,-10.769 -7.18,-20.588 -12.037,-29.457c-4.856,-8.869 -10.663,-16.523 -17.42,-22.964c-6.758,-6.44 -14.465,-11.455 -23.122,-15.045c-8.658,-3.59 -18.371,-5.385 -29.141,-5.385c-14.359,0 -27.398,3.485 -39.117,10.453c-11.72,6.968 -21.697,17.368 -29.932,31.199c-8.236,13.831 -14.57,30.935 -19.005,51.312c-4.434,20.377 -6.651,43.974 -6.651,70.792Z" style="fill-rule:nonzero;"/><path d="M649.466,439.679l-260.045,0l0,-51.312l106.425,0l0,-302.171l-99.14,53.846l-20.271,-46.878l131.764,-69.366l48.778,-0l0,364.569l92.489,0l-0,51.312Z" style="fill-rule:nonzero;"/><path d="M1019.1,232.847c-0,31.674 -3.168,60.55 -9.502,86.629c-6.335,26.078 -15.943,48.461 -28.824,67.149c-12.881,18.688 -28.876,33.152 -47.986,43.394c-19.11,10.241 -41.546,15.361 -67.308,15.361c-22.172,0 -42.337,-4.17 -60.497,-12.511c-18.16,-8.341 -33.68,-21.169 -46.561,-38.484c-12.881,-17.315 -22.806,-39.381 -29.774,-66.199c-6.968,-26.817 -10.452,-58.597 -10.452,-95.339c-0,-31.674 3.22,-60.603 9.66,-86.787c6.441,-26.184 16.048,-48.62 28.824,-67.308c12.775,-18.687 28.77,-33.152 47.986,-43.393c19.216,-10.241 41.599,-15.362 67.149,-15.362c22.172,-0 42.338,4.17 60.498,12.511c18.16,8.341 33.68,21.222 46.561,38.643c12.88,17.42 22.805,39.54 29.773,66.357c6.969,26.817 10.453,58.597 10.453,95.339Zm-55.747,1.901c0,-7.18 -0.264,-14.307 -0.792,-21.381c-0.527,-7.073 -1.108,-13.989 -1.742,-20.746l-175.158,130.181c3.168,10.98 7.18,21.116 12.037,30.407c4.856,9.291 10.716,17.262 17.579,23.914c6.863,6.651 14.675,11.825 23.439,15.52c8.763,3.695 18.74,5.543 29.932,5.543c14.359,0 27.398,-3.484 39.117,-10.452c11.72,-6.969 21.697,-17.316 29.932,-31.041c8.236,-13.726 14.57,-30.777 19.005,-51.154c4.434,-20.377 6.651,-43.974 6.651,-70.791Zm-189.411,-3.801c0,6.546 0.053,13.092 0.158,19.638c0.106,6.546 0.476,12.88 1.109,19.004l175.158,-129.547c-3.167,-10.769 -7.18,-20.588 -12.036,-29.457c-4.857,-8.869 -10.664,-16.523 -17.421,-22.964c-6.757,-6.44 -14.465,-11.455 -23.122,-15.045c-8.658,-3.59 -18.371,-5.385 -29.14,-5.385c-14.359,0 -27.398,3.485 -39.118,10.453c-11.719,6.968 -21.697,17.368 -29.932,31.199c-8.235,13.831 -14.57,30.935 -19.004,51.312c-4.435,20.377 -6.652,43.974 -6.652,70.792Z" style="fill-rule:nonzero;"/></g><g><path d="M292.815,998.302l-260.045,-0l0,-51.312l106.426,-0l-0,-302.172l-99.141,53.846l-20.271,-46.877l131.764,-69.367l48.779,0l-0,364.57l92.488,-0l0,51.312Z" style="fill-rule:nonzero;"/><path d="M662.452,791.47c0,31.674 -3.167,60.55 -9.502,86.628c-6.335,26.079 -15.943,48.462 -28.824,67.15c-12.88,18.687 -28.876,33.152 -47.986,43.393c-19.11,10.241 -41.546,15.362 -67.307,15.362c-22.172,0 -42.338,-4.17 -60.498,-12.511c-18.16,-8.341 -33.68,-21.169 -46.561,-38.484c-12.881,-17.315 -22.805,-39.382 -29.774,-66.199c-6.968,-26.818 -10.452,-58.597 -10.452,-95.339c-0,-31.674 3.22,-60.604 9.66,-86.787c6.441,-26.184 16.049,-48.62 28.824,-67.308c12.775,-18.688 28.771,-33.152 47.986,-43.394c19.216,-10.241 41.599,-15.361 67.149,-15.361c22.172,-0 42.338,4.17 60.498,12.511c18.16,8.341 33.68,21.221 46.561,38.642c12.881,17.421 22.805,39.54 29.774,66.358c6.968,26.817 10.452,58.597 10.452,95.339Zm-55.746,1.9c-0,-7.179 -0.264,-14.306 -0.792,-21.38c-0.528,-7.074 -1.109,-13.989 -1.742,-20.746l-175.158,130.18c3.167,10.981 7.179,21.116 12.036,30.407c4.857,9.291 10.716,17.263 17.579,23.914c6.863,6.652 14.676,11.825 23.439,15.521c8.763,3.695 18.74,5.543 29.932,5.543c14.359,-0 27.398,-3.485 39.118,-10.453c11.719,-6.968 21.696,-17.315 29.932,-31.041c8.235,-13.725 14.57,-30.776 19.004,-51.153c4.434,-20.377 6.652,-43.974 6.652,-70.792Zm-189.412,-3.801c0,6.546 0.053,13.092 0.159,19.638c0.105,6.546 0.475,12.881 1.108,19.005l175.158,-129.548c-3.167,-10.769 -7.179,-20.588 -12.036,-29.456c-4.857,-8.869 -10.664,-16.524 -17.421,-22.964c-6.757,-6.441 -14.464,-11.456 -23.122,-15.045c-8.657,-3.59 -18.371,-5.385 -29.14,-5.385c-14.359,-0 -27.398,3.484 -39.118,10.452c-11.719,6.969 -21.696,17.368 -29.932,31.199c-8.235,13.831 -14.57,30.936 -19.004,51.313c-4.434,20.377 -6.652,43.974 -6.652,70.791Z" style="fill-rule:nonzero;"/><path d="M1006.12,998.302l-260.044,-0l-0,-51.312l106.425,-0l-0,-302.172l-99.14,53.846l-20.272,-46.877l131.765,-69.367l48.778,0l-0,364.57l92.488,-0l0,51.312Z" style="fill-rule:nonzero;"/></g></svg>

<?xml version="1.0" encoding="UTF-8" standalone="no"?>
<!DOCTYPE svg PUBLIC "-//W3C//DTD SVG 1.1//EN" "http://www.w3.org/Graphics/SVG/1.1/DTD/svg11.dtd">
<svg width="100%" height="100%" viewBox="0 0 1024 1024" version="1.1" xmlns="http://www.w3.org/2000/svg" xmlns:xlink="http://www.w3.org/1999/xlink" xml:space="preserve" xmlns:serif="http://www.serif.com/" style="fill-rule:evenodd;clip-rule:evenodd;stroke-linejoin:round;stroke-miterlimit:2;">
    <g transform="matrix(0.964853,0,0,0.964853,17.9955,17.9955)">
        <path d="M305.801,232.847C305.801,264.521 302.634,293.397 296.299,319.476C289.964,345.554 280.357,367.937 267.476,386.625C254.595,405.313 238.599,419.777 219.489,430.019C200.379,440.26 177.944,445.38 152.182,445.38C130.01,445.38 109.844,441.21 91.684,432.869C73.524,424.528 58.004,411.7 45.123,394.385C32.243,377.07 22.318,355.004 15.35,328.186C8.381,301.369 4.897,269.589 4.897,232.847C4.897,201.173 8.117,172.244 14.558,146.06C20.998,119.876 30.606,97.44 43.381,78.752C56.157,60.065 72.152,45.6 91.368,35.359C110.583,25.118 132.966,19.997 158.517,19.997C180.689,19.997 200.854,24.167 219.014,32.508C237.174,40.849 252.694,53.73 265.575,71.151C278.456,88.571 288.381,110.691 295.349,137.508C302.317,164.325 305.801,196.105 305.801,232.847ZM250.055,234.748C250.055,227.568 249.791,220.441 249.263,213.367C248.735,206.294 248.155,199.378 247.521,192.621L72.363,322.802C75.531,333.782 79.543,343.918 84.399,353.209C89.256,362.5 95.116,370.471 101.978,377.123C108.841,383.774 116.654,388.948 125.417,392.643C134.18,396.338 144.158,398.186 155.349,398.186C169.708,398.186 182.747,394.702 194.467,387.734C206.186,380.765 216.164,370.418 224.399,356.693C232.634,342.967 238.969,325.916 243.403,305.539C247.838,285.162 250.055,261.565 250.055,234.748ZM60.644,230.947C60.644,237.493 60.696,244.039 60.802,250.585C60.908,257.131 61.277,263.465 61.911,269.589L237.069,140.042C233.901,129.273 229.889,119.454 225.032,110.585C220.176,101.716 214.369,94.062 207.612,87.621C200.854,81.181 193.147,76.166 184.49,72.576C175.832,68.986 166.119,67.191 155.349,67.191C140.99,67.191 127.951,70.676 116.232,77.644C104.512,84.612 94.535,95.012 86.3,108.843C78.064,122.674 71.73,139.778 67.295,160.155C62.861,180.532 60.644,204.129 60.644,230.947Z" style="fill-rule:nonzero;"/>
    </g>
    <g transform="matrix(0.964853,0,0,0.964853,17.9955,17.9955)">
        <path d="M649.466,439.679L389.421,439.679L389.421,388.367L495.846,388.367L495.846,86.196L396.706,140.042L376.435,93.164L508.199,23.798L556.977,23.798L556.977,388.367L649.466,388.367L649.466,439.679Z" style="fill-rule:nonzero;"/>
    </g>
    <g transform="matrix(0.964853,0,0,0.964853,17.9955,17.9955)">
        <path d="M1019.1,232.847C1019.1,264.521 1015.93,293.397 1009.6,319.476C1003.26,345.554 993.655,367.937 980.774,386.625C967.893,405.313 951.898,419.777 932.788,430.019C913.678,440.26 891.242,445.38 865.48,445.38C843.308,445.38 823.143,441.21 804.983,432.869C786.823,424.528 771.303,411.7 758.422,394.385C745.541,377.07 735.616,355.004 728.648,328.186C721.68,301.369 718.196,269.589 718.196,232.847C718.196,201.173 721.416,172.244 727.856,146.06C734.297,119.876 743.904,97.44 756.68,78.752C769.455,60.065 785.45,45.6 804.666,35.359C823.882,25.118 846.265,19.997 871.815,19.997C893.987,19.997 914.153,24.167 932.313,32.508C950.473,40.849 965.993,53.73 978.874,71.151C991.754,88.571 1001.68,110.691 1008.65,137.508C1015.62,164.325 1019.1,196.105 1019.1,232.847ZM963.353,234.748C963.353,227.568 963.089,220.441 962.561,213.367C962.034,206.294 961.453,199.378 960.819,192.621L785.661,322.802C788.829,333.782 792.841,343.918 797.698,353.209C802.554,362.5 808.414,370.471 815.277,377.123C822.14,383.774 829.952,388.948 838.716,392.643C847.479,396.338 857.456,398.186 868.648,398.186C883.007,398.186 896.046,394.702 907.765,387.734C919.485,380.765 929.462,370.418 937.697,356.693C945.933,342.967 952.267,325.916 956.702,305.539C961.136,285.162 963.353,261.565 963.353,234.748ZM773.942,230.947C773.942,237.493 773.995,244.039 774.1,250.585C774.206,257.131 774.576,263.465 775.209,269.589L950.367,140.042C947.2,129.273 943.187,119.454 938.331,110.585C933.474,101.716 927.667,94.062 920.91,87.621C914.153,81.181 906.445,76.166 897.788,72.576C889.13,68.986 879.417,67.191 868.648,67.191C854.289,67.191 841.25,70.676 829.53,77.644C817.811,84.612 807.833,95.012 799.598,108.843C791.363,122.674 785.028,139.778 780.594,160.155C776.159,180.532 773.942,204.129 773.942,230.947Z" style="fill-rule:nonzero;"/>
    </g>
    <g transform="matrix(0.964853,0,0,0.964853,17.9955,17.9955)">
        <path d="M292.815,998.302L32.77,998.302L32.77,946.99L139.196,946.99L139.196,644.818L40.055,698.664L19.784,651.787L151.548,582.42L200.327,582.42L200.327,946.99L292.815,946.99L292.815,998.302Z" style="fill-rule:nonzero;"/>
    </g>
    <g transform="matrix(0.964853,0,0,0.964853,17.9955,17.9955)">
        <path d="M662.452,791.47C662.452,823.144 659.285,852.02 652.95,878.098C646.615,904.177 637.007,926.56 624.126,945.248C611.246,963.935 595.25,978.4 576.14,988.641C557.03,998.882 534.594,1004 508.833,1004C486.661,1004 466.495,999.833 448.335,991.492C430.175,983.151 414.655,970.323 401.774,953.008C388.893,935.693 378.969,913.626 372,886.809C365.032,859.991 361.548,828.212 361.548,791.47C361.548,759.796 364.768,730.866 371.208,704.683C377.649,678.499 387.257,656.063 400.032,637.375C412.807,618.687 428.803,604.223 448.018,593.981C467.234,583.74 489.617,578.62 515.167,578.62C537.339,578.62 557.505,582.79 575.665,591.131C593.825,599.472 609.345,612.352 622.226,629.773C635.107,647.194 645.031,669.313 652,696.131C658.968,722.948 662.452,754.728 662.452,791.47ZM606.706,793.37C606.706,786.191 606.442,779.064 605.914,771.99C605.386,764.916 604.805,758.001 604.172,751.244L429.014,881.424C432.181,892.405 436.193,902.54 441.05,911.831C445.907,921.122 451.766,929.094 458.629,935.745C465.492,942.397 473.305,947.57 482.068,951.266C490.831,954.961 500.808,956.809 512,956.809C526.359,956.809 539.398,953.324 551.118,946.356C562.837,939.388 572.814,929.041 581.05,915.315C589.285,901.59 595.62,884.539 600.054,864.162C604.488,843.785 606.706,820.188 606.706,793.37ZM417.294,789.569C417.294,796.115 417.347,802.661 417.453,809.207C417.558,815.753 417.928,822.088 418.561,828.212L593.719,698.664C590.552,687.895 586.54,678.076 581.683,669.208C576.826,660.339 571.019,652.684 564.262,646.244C557.505,639.803 549.798,634.788 541.14,631.199C532.483,627.609 522.769,625.814 512,625.814C497.641,625.814 484.602,629.298 472.882,636.266C461.163,643.235 451.186,653.634 442.95,667.465C434.715,681.296 428.38,698.401 423.946,718.778C419.512,739.155 417.294,762.752 417.294,789.569Z" style="fill-rule:nonzero;"/>
    </g>
    <g transform="matrix(0.964853,0,0,0.964853,17.9955,17.9955)">
        <path d="M1006.12,998.302L746.076,998.302L746.076,946.99L852.501,946.99L852.501,644.818L753.361,698.664L733.089,651.787L864.854,582.42L913.632,582.42L913.632,946.99L1006.12,946.99L1006.12,998.302Z" style="fill-rule:nonzero;"/>
    </g>
</svg>
